svg/home-2.svg

<svg width="24" height="24" viewBox="0 0 24 24" fill="none" xmlns="http://www.w3.org/2000/svg">
<path d="M9.02 2.84004L3.63 7.04004C2.73 7.74004 2 9.23004 2 10.36V17.77C2 20.09 3.89 21.99 6.21 21.99H17.79C20.11 21.99 22 20.09 22 17.78V10.5C22 9.29004 21.19 7.74004 20.2 7.05004L14.02 2.72004C12.62 1.74004 10.37 1.79004 9.02 2.84004Z" stroke="#292D32" stroke-width="1.5" stroke-linecap="round" stroke-linejoin="round"/>
<path d="M12 17.99V14.99" stroke="#292D32" stroke-width="1.5" stroke-linecap="round" stroke-linejoin="round"/>
</svg>

<svg xmlns="http://www.w3.org/2000/svg" width="24" height="24" fill="none"><path stroke="#292D32" stroke-linecap="round" stroke-linejoin="round" stroke-width="1.5" d="m9.02 2.84-5.39 4.2C2.73 7.74 2 9.23 2 10.36v7.41c0 2.32 1.89 4.22 4.21 4.22h11.58c2.32 0 4.21-1.9 4.21-4.21V10.5c0-1.21-.81-2.76-1.8-3.45l-6.18-4.33c-1.4-.98-3.65-.93-5 .12M12 17.99v-3"/></svg>
